icon-themes/colibre_svg/cmd/ar/lc_setoutline.svg

<svg viewBox="0 0 24 24" xmlns="http://www.w3.org/2000/svg"><path d="m2.5 2c-.277 0-.5.223-.5.5s.223.5.5.5h14c.277 0 .5-.223.5-.5s-.223-.5-.5-.5zm6 3c-.277 0-.5.223-.5.5s.223.5.5.5h8c.277 0 .5-.223.5-.5s-.223-.5-.5-.5zm-6.1074219 5c-.2172433 0-.3925781.175335-.3925781.392578v.214844c0 .217243.1753348.392578.3925781.392578h14.2148439c.217243 0 .392578-.175335.392578-.392578v-.214844c0-.217243-.175335-.392578-.392578-.392578zm6.1074219 3c-.277 0-.5.223-.5.5s.223.5.5.5h8c.277 0 .5-.223.5-.5s-.223-.5-.5-.5zm-6.0644531 5c-.2417883 0-.4355469.193759-.4355469.435547v.128906c0 .241788.1937586.435547.4355469.435547h14.1289061c.241788 0 .435547-.193759.435547-.435547v-.128906c0-.241788-.193759-.435547-.435547-.435547zm6.0644531 3c-.277 0-.5.223-.5.5s.223.5.5.5h8c.277 0 .5-.223.5-.5s-.223-.5-.5-.5z" fill="#808080"/><path d="m19.9375 2-1.9375 1.5605469.369141.46875c.01941.024061.046431.0482056.082031.0722656.038838.021053.082319.0359019.130859.0449219.048544.00902.10123.00902.15625 0 .055016-.009023.109043-.0340669.164063-.0761719l.839844-.671875c-.00976.150376-.013672.2952478-.013672.4335937v3.1679688h-1.248047v1h3.519531v-1h-1v-5zm.5625 8a1.5 1.5 0 0 0 -1.5 1.5 1.5 1.5 0 0 0 1.5 1.5 1.5 1.5 0 0 0 1.5-1.5 1.5 1.5 0 0 0 -1.5-1.5z" fill="#4d82b8"/></svg>

<svg viewBox="0 0 24 24" xmlns="http://www.w3.org/2000/svg">
  <path
     style="fill:#808080"
     d="M 2.5 2 C 2.223 2 2 2.223 2 2.5 C 2 2.777 2.223 3 2.5 3 L 16.5 3 C 16.777 3 17 2.777 17 2.5 C 17 2.223 16.777 2 16.5 2 L 2.5 2 z M 8.5 5 C 8.223 5 8 5.223 8 5.5 C 8 5.777 8.223 6 8.5 6 L 16.5 6 C 16.777 6 17 5.777 17 5.5 C 17 5.223 16.777 5 16.5 5 L 8.5 5 z M 2.3925781 10 C 2.1753348 10 2 10.175335 2 10.392578 L 2 10.607422 C 2 10.824665 2.1753348 11 2.3925781 11 L 16.607422 11 C 16.824665 11 17 10.824665 17 10.607422 L 17 10.392578 C 17 10.175335 16.824665 10 16.607422 10 L 2.3925781 10 z M 8.5 13 C 8.223 13 8 13.223 8 13.5 C 8 13.777 8.223 14 8.5 14 L 16.5 14 C 16.777 14 17 13.777 17 13.5 C 17 13.223 16.777 13 16.5 13 L 8.5 13 z M 2.4355469 18 C 2.1937586 18 2 18.193759 2 18.435547 L 2 18.564453 C 2 18.806241 2.1937586 19 2.4355469 19 L 16.564453 19 C 16.806241 19 17 18.806241 17 18.564453 L 17 18.435547 C 17 18.193759 16.806241 18 16.564453 18 L 2.4355469 18 z M 8.5 21 C 8.223 21 8 21.223 8 21.5 C 8 21.777 8.223 22 8.5 22 L 16.5 22 C 16.777 22 17 21.777 17 21.5 C 17 21.223 16.777 21 16.5 21 L 8.5 21 z "
     id="rect2" />
  <path
     style="fill:#4d82b8"
     d="M 19.9375 2 L 18 3.5605469 L 18.369141 4.0292969 C 18.388551 4.0533579 18.415572 4.0775025 18.451172 4.1015625 C 18.49001 4.1226155 18.533491 4.1374644 18.582031 4.1464844 C 18.630575 4.1555044 18.683261 4.1555044 18.738281 4.1464844 C 18.793297 4.1374614 18.847324 4.1124175 18.902344 4.0703125 L 19.742188 3.3984375 C 19.732428 3.5488135 19.728516 3.6936853 19.728516 3.8320312 L 19.728516 7 L 18.480469 7 L 18.480469 8 L 22 8 L 22 7 L 21 7 L 21 2 L 19.9375 2 z M 20.5 10 A 1.5 1.5 0 0 0 19 11.5 A 1.5 1.5 0 0 0 20.5 13 A 1.5 1.5 0 0 0 22 11.5 A 1.5 1.5 0 0 0 20.5 10 z "
     id="circle16" />
</svg>
